X:1
T:Title
%%score ( 1 2 ) { 3 | 4 }
L:1/8
Q:1/4=106
M:4/4
K:C
V:1 treble nm="Grand Piano, Soprano"
V:2 treble 
V:3 bass nm="Choir Pad, Ring Out, Sweet Easter Bells"
V:4 bass 
V:1
 [CE][DF] [EG]2 [EG]2 [EG]2 | [EG]2 [FA]2- [FA][EG] [Ec]2- | [Ec][EG] [FA]2 [EG]2 [Ec]2 | %3
w: Generated~by~NoteWorthy~Composer * * * *|||
 [CE]2 [CE]4 [B,D]2 | [CE][DF] [EG]2 [EG]2 [EG]2 | [EG]2 [FA]2- [FA][EG] [Ec]2 | %6
w: |||
 Bc [Gd]2 G2 [Gc]2 | [GB]2 [^FA]4 G2 | G2 [Ec]2- [Ec][DB] [Ec]2 | E2 [FA]2- [FA][FG] [FA]2 | %10
w: ||||
 [FA]2 [^Fd]2 [Fc]2 [FB]2 | [^FA]2 G2- G/ z/ [DA] [DG]2 | [EG][EG] [FA]2- [FA][EG] [DF]2 | %13
w: |||
 [FB]2 c2- [Gc-][Fc] [Ec]2- | [Ec]6 z2 |] %15
w: ||
V:2
 x8 | x8 | x8 | x8 | x8 | x8 | D2 z2 z4 | x8 | x8 | x8 | x8 | x8 | x8 | z2 F2 z4 | x8 |] %15
V:3
 G,2 C2 G,2 E,2 | G,2[K:treble] C2- CC G,2- | G,[K:bass]G, C2 G,2 A,2 | A,2 G,4 G,2 | %4
 G,2 C2 G,2 E,2 | G,2[K:treble] C2- CC G,2 | G,[K:bass]B, B,2 B,2 E2 | D2 C4 B,2 | %8
 B,2[K:treble] C2- CG, G,2 | C2 C2- CC C2 | C2 D2 A,2 D2 | C2[K:bass] B,2- B,C B,2 | %12
 G,G, G,2- G,/ z/ G, G,2 | D2 G,4 G,2- | G,6 z2 |] %15
V:4
 C,2 C,2 z4 | z2 C,2- C,C, C,2- | C,C, C,2 C,2 A,,2 | ^F,,2 G,,4 G,,2 | C,2 C,2 z4 | %5
 z2 C,2- C,C, C,2 | D,2 D,2 D,2 D,2 | D,2 D,4 G,2 | G,2 C,2- C,C, C,2 | C,2 F,2- F,F, F,2 | %10
 F,2 D,2 D,2 D,2 | D,2 G,2- G,G, G,2 | z4 z2 G,,2 | G,2 G,,4 C,2- | C,6 z2 |] %15

